X:37
T:Jäspôdspolska från Boda
N:Stämma av Jon Magnusson
R:Polska
Z:2007-09-05
M:3/4
L:1/8
K:D
d2 dc BA|G2 GF ED|CC DD EE|F2 FD FA|
d2 dc BA|G2 GF ED|CC DD EE|F2 F4:|
fe dc BA|G2 g4|ed/2e/2 fe cA|Ad fg f2|
fe dc BA|G2 g4|ed/2e/2 fe cA|d2[d4F4]:|
(:musicend:)

(:music:)
